svgs/sharp-solid/face-grimace.svg

<svg xmlns="http://www.w3.org/2000/svg" viewBox="0 0 512 512"><!--! Font Awesome Pro 6.6.0 by @fontawesome - https://fontawesome.com License - https://fontawesome.com/license (Commercial License) Copyright 2024 Fonticons, Inc. --><path d="M256 512A256 256 0 1 0 256 0a256 256 0 1 0 0 512zM400 400l-56 0 0-40 56 0 0 40zm0-56l-56 0 0-40 56 0 0 40zm-72 0l-64 0 0-40 64 0 0 40zm0 56l-64 0 0-40 64 0 0 40zm-80-96l0 40-64 0 0-40 64 0zm0 56l0 40-64 0 0-40 64 0zm-80-16l-56 0 0-40 56 0 0 40zm0 56l-56 0 0-40 56 0 0 40zM144.4 208a32 32 0 1 1 64 0 32 32 0 1 1 -64 0zm192-32a32 32 0 1 1 0 64 32 32 0 1 1 0-64z"/></svg>

<svg xmlns="http://www.w3.org/2000/svg" viewBox="0 0 512 512"><!--! Font Awesome Pro 6.4.2 by @fontawesome - https://fontawesome.com License - https://fontawesome.com/license (Commercial License) Copyright 2023 Fonticons, Inc. --><path d="M256 512A256 256 0 1 0 256 0a256 256 0 1 0 0 512zM400 400H344V360l56 0v40zm0-56l-56 0V304h56v40zm-72 0H264V304h64v40zm0 56H264V360h64v40zm-80-96v40l-64 0V304h64zm0 56v40H184V360l64 0zm-80-16H112V304h56v40zm0 56H112V360h56v40zM144.4 208a32 32 0 1 1 64 0 32 32 0 1 1 -64 0zm192-32a32 32 0 1 1 0 64 32 32 0 1 1 0-64z"/></svg>
